X: 4308
M: C|
L: 1/8
K: Bb
(dc) |\
d2F2 F2(GA) | BABc B2d2 | cBcd edcB | d2G2 G2(dc) |\
d2F2 F2(GA) | BABc B2(ba) | gfga bgfe | d2B2 B2 :|
|: f2 |\
gfga b2d2 | edef g2B2 | cBcd edcB | d2G2 G2(dc) |\
d2F2 F2(GA) | BABc B2(ba) | gfga bgfe | d2B2 B2 :|
|: (3(fga) |\
bfdf gfdf | bfdf gfdf | bagf edcB | d2G2 G2 (dc) |\


